X: 1
T:The Isle of Mull
M:3/4
L:1/8
Q:80
C:Traditional
S:Slow Air
K:HP
|: {g}A3/2B/2{Gdc}d2{g}e3/2d/2|
{gBd}B3/2{G}A/2{g}A2-A3/2{GAG}A/2|
{g}B/2d3/2{gef}e2{A}e2|  !
{g}f3/2e/2{gef}e2{Gdc}d2|
ag{fg}f2{g}e3/2d/2|
{g}f3/2e/2{Gdc}d2{g}B2|  !
{g}A3/2{GAG}A/2{GdG}B2{gef}e3/2d/2|
{gBd}B3/2{G}A/2{g}A2-A2:|
